assets/components_previews/layout/light/box.svg

<svg xmlns="http://www.w3.org/2000/svg" width="320" height="232" fill="none" viewBox="0 0 320 232"><g filter="url(#a)"><rect width="160" height="90" x="80" y="71" fill="#fff" rx="12"/><path fill="#AA99EC" d="m145.68 121.104-7.168-3.376v-2l7.168-3.376v1.84l-4.64 2.144a8 8 0 0 1-.64.256 4 4 0 0 1-.48.128q.175.032.496.128.32.096.624.24l4.64 2.144zm4.569 1.056q-1.28 0-2.08-.912-.783-.912-.784-2.448v-2.384q0-1.552.784-2.464.8-.912 2.08-.912 1.185 0 1.872.752.688.737.688 2.016l-.592-.832h.464l-.064-2.192v-2.464h2V122h-1.952v-1.776h-.448l.576-.832q0 1.28-.688 2.032-.672.736-1.856.736m.752-1.728q.768 0 1.184-.464.432-.464.432-1.312v-2.112q0-.848-.432-1.312-.416-.464-1.184-.464t-1.2.416q-.416.416-.416 1.28v2.272q0 .848.416 1.28.432.416 1.2.416m5.418 1.568v-1.808h3.008v-5.184h-2.688V113.2h4.688v6.992h2.704V122zm3.872-10.272q-.608 0-.96-.304-.352-.32-.352-.848t.352-.832q.352-.32.96-.32t.96.32q.352.304.352.832t-.352.848q-.352.304-.96.304M167.693 122l-2.96-8.8h2.096l1.696 5.344q.16.48.288.976.128.48.16.832.064-.352.176-.832.113-.496.24-.96l1.68-5.36h2.112l-2.944 8.8zm6.634-.896v-1.84l4.64-2.144q.32-.144.624-.24.32-.113.496-.144a5 5 0 0 1-.496-.128 6 6 0 0 1-.624-.224l-4.64-2.16v-1.872l7.168 3.376v2z"/></g><defs><filter id="a" width="200" height="130" x="60" y="63" color-interpolation-filters="sRGB" filterUnits="userSpaceOnUse"><feFlood flood-opacity="0" result="BackgroundImageFix"/><feColorMatrix in="SourceAlpha" result="hardAlpha" values="0 0 0 0 0 0 0 0 0 0 0 0 0 0 0 0 0 0 127 0"/><feOffset dy="12"/><feGaussianBlur stdDeviation="10"/><feComposite in2="hardAlpha" operator="out"/><feColorMatrix values="0 0 0 0 0 0 0 0 0 0 0 0 0 0 0 0 0 0 0.03 0"/><feBlend in2="BackgroundImageFix" result="effect1_dropShadow_10185_10929"/><feColorMatrix in="SourceAlpha" result="hardAlpha" values="0 0 0 0 0 0 0 0 0 0 0 0 0 0 0 0 0 0 127 0"/><feOffset dy="2"/><feGaussianBlur stdDeviation="3"/><feComposite in2="hardAlpha" operator="out"/><feColorMatrix values="0 0 0 0 0 0 0 0 0 0 0 0 0 0 0 0 0 0 0.05 0"/><feBlend in2="effect1_dropShadow_10185_10929" result="effect2_dropShadow_10185_10929"/><feBlend in="SourceGraphic" in2="effect2_dropShadow_10185_10929" result="shape"/></filter></defs></svg>

<svg width="320" height="232" viewBox="0 0 320 232" fill="none" xmlns="http://www.w3.org/2000/svg">
<g filter="url(#filter0_dd_10185_10929)">
<rect x="80" y="71" width="160" height="90" rx="12" fill="white"/>
<path d="M145.68 121.104L138.512 117.728V115.728L145.68 112.352V114.192L141.04 116.336C140.826 116.432 140.613 116.517 140.4 116.592C140.197 116.656 140.037 116.699 139.92 116.72C140.037 116.741 140.202 116.784 140.416 116.848C140.629 116.912 140.837 116.992 141.04 117.088L145.68 119.232V121.104ZM150.249 122.16C149.396 122.16 148.703 121.856 148.169 121.248C147.647 120.64 147.385 119.824 147.385 118.8V116.416C147.385 115.381 147.647 114.56 148.169 113.952C148.703 113.344 149.396 113.04 150.249 113.04C151.039 113.04 151.663 113.291 152.121 113.792C152.58 114.283 152.809 114.955 152.809 115.808L152.217 114.976H152.681L152.617 112.784V110.32H154.617V122H152.665V120.224H152.217L152.793 119.392C152.793 120.245 152.564 120.923 152.105 121.424C151.657 121.915 151.039 122.16 150.249 122.16ZM151.001 120.432C151.513 120.432 151.908 120.277 152.185 119.968C152.473 119.659 152.617 119.221 152.617 118.656V116.544C152.617 115.979 152.473 115.541 152.185 115.232C151.908 114.923 151.513 114.768 151.001 114.768C150.489 114.768 150.089 114.907 149.801 115.184C149.524 115.461 149.385 115.888 149.385 116.464V118.736C149.385 119.301 149.524 119.728 149.801 120.016C150.089 120.293 150.489 120.432 151.001 120.432ZM156.419 122V120.192H159.427V115.008H156.739V113.2H161.427V120.192H164.131V122H156.419ZM160.291 111.728C159.886 111.728 159.566 111.627 159.331 111.424C159.096 111.211 158.979 110.928 158.979 110.576C158.979 110.224 159.096 109.947 159.331 109.744C159.566 109.531 159.886 109.424 160.291 109.424C160.696 109.424 161.016 109.531 161.251 109.744C161.486 109.947 161.603 110.224 161.603 110.576C161.603 110.928 161.486 111.211 161.251 111.424C161.016 111.627 160.696 111.728 160.291 111.728ZM167.693 122L164.733 113.2H166.829L168.525 118.544C168.632 118.864 168.728 119.189 168.813 119.52C168.898 119.84 168.952 120.117 168.973 120.352C169.016 120.117 169.074 119.84 169.149 119.52C169.224 119.189 169.304 118.869 169.389 118.56L171.069 113.2H173.181L170.237 122H167.693ZM174.327 121.104V119.264L178.967 117.12C179.18 117.024 179.388 116.944 179.591 116.88C179.804 116.805 179.969 116.757 180.087 116.736C179.969 116.715 179.804 116.672 179.591 116.608C179.377 116.544 179.169 116.469 178.967 116.384L174.327 114.224V112.352L181.495 115.728V117.728L174.327 121.104Z" fill="#AA99EC"/>
</g>
<defs>
<filter id="filter0_dd_10185_10929" x="60" y="63" width="200" height="130" filterUnits="userSpaceOnUse" color-interpolation-filters="sRGB">
<feFlood flood-opacity="0" result="BackgroundImageFix"/>
<feColorMatrix in="SourceAlpha" type="matrix" values="0 0 0 0 0 0 0 0 0 0 0 0 0 0 0 0 0 0 127 0" result="hardAlpha"/>
<feOffset dy="12"/>
<feGaussianBlur stdDeviation="10"/>
<feComposite in2="hardAlpha" operator="out"/>
<feColorMatrix type="matrix" values="0 0 0 0 0 0 0 0 0 0 0 0 0 0 0 0 0 0 0.03 0"/>
<feBlend mode="normal" in2="BackgroundImageFix" result="effect1_dropShadow_10185_10929"/>
<feColorMatrix in="SourceAlpha" type="matrix" values="0 0 0 0 0 0 0 0 0 0 0 0 0 0 0 0 0 0 127 0" result="hardAlpha"/>
<feOffset dy="2"/>
<feGaussianBlur stdDeviation="3"/>
<feComposite in2="hardAlpha" operator="out"/>
<feColorMatrix type="matrix" values="0 0 0 0 0 0 0 0 0 0 0 0 0 0 0 0 0 0 0.05 0"/>
<feBlend mode="normal" in2="effect1_dropShadow_10185_10929" result="effect2_dropShadow_10185_10929"/>
<feBlend mode="normal" in="SourceGraphic" in2="effect2_dropShadow_10185_10929" result="shape"/>
</filter>
</defs>
</svg>
